svgs/sharp-light/page-caret-up.svg

<svg xmlns="http://www.w3.org/2000/svg" viewBox="0 0 384 512"><!--! Font Awesome Pro 6.6.0 by @fontawesome - https://fontawesome.com License - https://fontawesome.com/license (Commercial License) Copyright 2024 Fonticons, Inc. --><path d="M352 125.3L352 480 32 480 32 32l226.7 0L352 125.3zM384 112L272 0 32 0 0 0 0 32 0 480l0 32 32 0 320 0 32 0 0-32 0-368zM192 237.3L242.7 288l-101.5 0L192 237.3zm0-45.3l-22.6 22.6L96 288l0 32 32 0 128 0 32 0 0-32-73.4-73.4L192 192z"/></svg>

<svg xmlns="http://www.w3.org/2000/svg" viewBox="0 0 384 512"><!--! Font Awesome Pro 6.4.0 by @fontawesome - https://fontawesome.com License - https://fontawesome.com/license (Commercial License) Copyright 2023 Fonticons, Inc. --><path d="M352 125.3V480H32V32H258.7L352 125.3zM384 112L272 0H32 0V32 480v32H32 352h32V480 112zM192 237.3L242.7 288H141.3L192 237.3zm0-45.3l-22.6 22.6L96 288v32h32H256h32V288l-73.4-73.4L192 192z"/></svg>
